imgSection6/t4.svg

<svg width="17" height="16" viewBox="0 0 17 16" fill="none" xmlns="http://www.w3.org/2000/svg">
<g clip-path="url(#clip0_190_1614)">
<path d="M14.4181 4.74107C14.4281 4.88319 14.4281 5.02535 14.4281 5.16747C14.4281 9.50247 11.1509 14.4974 5.16096 14.4974C3.31558 14.4974 1.60132 13.9593 0.159302 13.0253C0.421495 13.0558 0.673569 13.0659 0.94585 13.0659C2.46851 13.0659 3.8702 12.5482 4.98953 11.6649C3.5576 11.6345 2.3576 10.6903 1.94415 9.39081C2.14585 9.42125 2.34751 9.44156 2.5593 9.44156C2.85172 9.44156 3.14418 9.40094 3.41643 9.32991C1.92401 9.02531 0.80465 7.70553 0.80465 6.11163V6.07103C1.23825 6.31469 1.74249 6.46697 2.2769 6.48725C1.39959 5.89841 0.824826 4.89335 0.824826 3.75628C0.824826 3.14716 0.98614 2.58878 1.26851 2.10147C2.87187 4.09131 5.28195 5.39078 7.98443 5.53294C7.93403 5.28928 7.90376 5.0355 7.90376 4.78169C7.90376 2.97457 9.35586 1.5025 11.1609 1.5025C12.0987 1.5025 12.9457 1.89844 13.5407 2.53803C14.2768 2.39591 14.9827 2.12178 15.6079 1.74616C15.3659 2.5076 14.8516 3.14719 14.176 3.55325C14.8315 3.48222 15.4668 3.29944 16.0516 3.04566C15.608 3.69538 15.0533 4.27403 14.4181 4.74107Z" fill="black"/>
</g>
<defs>
<clipPath id="clip0_190_1614">
<rect width="15.8924" height="16" fill="white" transform="translate(0.159302)"/>
</clipPath>
</defs>
</svg>

<svg width="17" height="16" xmlns="http://www.w3.org/2000/svg"><g clip-path="url(#a)"><path d="M14.418 4.741c.01.142.01.284.01.426 0 4.335-3.277 9.33-9.267 9.33a9.16 9.16 0 0 1-5.002-1.472c.262.03.515.04.787.04a6.495 6.495 0 0 0 4.044-1.4A3.266 3.266 0 0 1 1.944 9.39c.202.03.404.05.615.05.293 0 .585-.04.857-.111A3.274 3.274 0 0 1 .805 6.112V6.07c.433.244.937.396 1.472.416a3.283 3.283 0 0 1-1.452-2.73c0-.61.161-1.168.444-1.656a9.238 9.238 0 0 0 6.715 3.432 3.727 3.727 0 0 1-.08-.751c0-1.807 1.452-3.28 3.257-3.28a3.24 3.24 0 0 1 2.38 1.036 6.386 6.386 0 0 0 2.067-.792 3.266 3.266 0 0 1-1.432 1.807 6.494 6.494 0 0 0 1.876-.507 7.029 7.029 0 0 1-1.634 1.695Z"/></g><defs><clipPath id="a"><path fill="#fff" transform="translate(.16)" d="M0 0h15.892v16H0z"/></clipPath></defs></svg>
